docs/.gitbook/assets/icon-crypto-16@light.svg

<svg width="32" height="32" viewBox="0 0 16 16" fill="none" xmlns="http://www.w3.org/2000/svg">
<rect x="0" y="0" width="16" height="16" fill="#fff"/>
<path fill-rule="evenodd" clip-rule="evenodd" d="M6.75 1C7.16421 1 7.5 1.33579 7.5 1.75V3H8.5V1.75C8.5 1.33579 8.83579 1 9.25 1C9.66421 1 10 1.33579 10 1.75V3.13558C11.16 3.50576 12 4.59228 12 5.875C12 6.50931 11.7946 7.09565 11.4466 7.57111C12.3695 8.04965 13 9.01369 13 10.125C13 11.7128 11.7128 13 10.125 13H10V14.25C10 14.6642 9.66421 15 9.25 15C8.83579 15 8.5 14.6642 8.5 14.25V13H7.5V14.25C7.5 14.6642 7.16421 15 6.75 15C6.33579 15 6 14.6642 6 14.25V13H5.75H3.75C3.33579 13 3 12.6642 3 12.25C3 11.8358 3.33579 11.5 3.75 11.5H5V8V4.5H3.75C3.33579 4.5 3 4.16421 3 3.75C3 3.33579 3.33579 3 3.75 3H5.75H6V1.75C6 1.33579 6.33579 1 6.75 1ZM6.5 4.5V7.25H9.125C9.88439 7.25 10.5 6.63439 10.5 5.875C10.5 5.11561 9.88439 4.5 9.125 4.5H6.75H6.5ZM9.125 8.75H6.5V11.5H6.75H9.25H10.125C10.8844 11.5 11.5 10.8844 11.5 10.125C11.5 9.36561 10.8844 8.75 10.125 8.75H9.125Z" fill="#000"/>
</svg>

<svg xmlns="http://www.w3.org/2000/svg" width="32" height="32" fill="none" viewBox="0 0 16 16"><path fill="#fff" d="M0 0h16v16H0z"/><path fill="#000" fill-rule="evenodd" d="M6.75 1a.75.75 0 0 1 .75.75V3h1V1.75a.75.75 0 0 1 1.5 0v1.386a2.876 2.876 0 0 1 1.447 4.435A2.875 2.875 0 0 1 10.125 13H10v1.25a.75.75 0 0 1-1.5 0V13h-1v1.25a.75.75 0 0 1-1.5 0V13H3.75a.75.75 0 0 1 0-1.5H5v-7H3.75a.75.75 0 0 1 0-1.5H6V1.75A.75.75 0 0 1 6.75 1M6.5 4.5v2.75h2.625a1.375 1.375 0 0 0 0-2.75zm2.625 4.25H6.5v2.75h3.625a1.375 1.375 0 1 0 0-2.75z" clip-rule="evenodd"/></svg>
